X: 16211
T: Busk O Busk My bonny bonny Bride
%R: air, reel
B: James Oswald "The Caledonian Pocket Companion" v.1 b.6 p.12 #1
S: https://ia800501.us.archive.org/18/items/caledonianpocket01rugg/caledonianpocket01rugg_bw.pdf
Z: 2020 John Chambors <jc:trillian.mit.edu>
N: What does that "Cher." annotation in bar 16 mean? (Or is it "Cher."?)
M: C
L: 1/8
K: D
%%slurgraces 1
%%graceslurs 1
|: "_Slow"\
A2 (A/B/d) {B}A3 f | {a}gf{f}ed B4 | A2 (A/B/d) {B}A3 f | (gf)(ed) d>e (d/e/f) | A2 (AdBA) A3 f | g(f/a/) {f}ed B2Tf>e |
d(c/B/) A(G/F/) {fg}gf{f}ed | (=c2TB)>A (AB)d2 :: (fef)g {fg}a3(g/f/) | {ef}gfTed B4 | (fe)(fg) {fg}a3g |
(f/g/e/f/) de (f>g) a2 | (Tfef)g a(g/f/) ba | (g/a/f/g/ e/f/d/e/) B2 Tf>e | d/(c/B) (A/G/)F (f/g/)a (f/e/)d |
(=c2TB)A {A}B2d2 | "_Chor."a3f a3f | (gfg)a b3d' | (3(aba) (3(fgf) (e/f/a/f/) Ted | (=c2TB)A {A}B2d2 :|
